src/client/web-contents/img/common/badge/badge_status_02.svg

<svg height="32" viewBox="0 0 56 32" width="56" xmlns="http://www.w3.org/2000/svg"><g fill="none" fill-rule="evenodd"><rect fill="#f66252" height="32" rx="4" width="56"/><path d="m8 9.536h2.052l6.75 8.712v-8.712h2.178v12.6h-1.854l-6.948-8.964v8.964h-2.178zm12.22 0h9.342v1.98h-7.128v3.276h6.318v1.98h-6.318v3.384h7.218v1.98h-9.432zm9.088 0h2.394l3.006 9.342 3.096-9.378h1.872l3.096 9.378 3.006-9.342h2.322l-4.392 12.69h-1.908l-3.096-9.054-3.096 9.054h-1.908z" fill="#fff"/></g></svg>

<?xml version="1.0" encoding="UTF-8" standalone="no"?>
<svg width="56px" height="32px" viewBox="0 0 56 32" version="1.1" xmlns="http://www.w3.org/2000/svg" xmlns:xlink="http://www.w3.org/1999/xlink">
    <!-- Generator: Sketch 50.2 (55047) - http://www.bohemiancoding.com/sketch -->
    <title>graphic_badge_status_02</title>
    <desc>Created with Sketch.</desc>
    <defs></defs>
    <g id="Icon_Badge_Graphic" stroke="none" stroke-width="1" fill="none" fill-rule="evenodd">
        <g id="##Element/Badge/Status02">
            <rect id="Rectangle-2" fill="#F66252" x="0" y="0" width="56" height="32" rx="4"></rect>
            <path d="M8,9.536 L10.052,9.536 L16.802,18.248 L16.802,9.536 L18.98,9.536 L18.98,22.136 L17.126,22.136 L10.178,13.172 L10.178,22.136 L8,22.136 L8,9.536 Z M20.22,9.536 L29.562,9.536 L29.562,11.516 L22.434,11.516 L22.434,14.792 L28.752,14.792 L28.752,16.772 L22.434,16.772 L22.434,20.156 L29.652,20.156 L29.652,22.136 L20.22,22.136 L20.22,9.536 Z M29.308,9.536 L31.702,9.536 L34.708,18.878 L37.804,9.5 L39.676,9.5 L42.772,18.878 L45.778,9.536 L48.1,9.536 L43.708,22.226 L41.8,22.226 L38.704,13.172 L35.608,22.226 L33.7,22.226 L29.308,9.536 Z" id="NEW" fill="#FFFFFF"></path>
        </g>
    </g>
</svg>
